storage/app/icons/phosphoricons/duotone/layout-duotone.svg

<svg xmlns="http://www.w3.org/2000/svg" fill="currentColor" viewBox="0 0 256 256"><path d="M104 104v104H40a8 8 0 0 1-8-8v-96Z" opacity=".2"/><path d="M216 40H40a16 16 0 0 0-16 16v144a16 16 0 0 0 16 16h176a16 16 0 0 0 16-16V56a16 16 0 0 0-16-16m0 16v40H40V56ZM40 112h56v88H40Zm176 88H112v-88h104z"/></svg>

<svg xmlns="http://www.w3.org/2000/svg" viewBox="0 0 256 256" fill="currentColor"><path d="M104,104V208H40a8,8,0,0,1-8-8V104Z" opacity="0.2"/><path d="M216,40H40A16,16,0,0,0,24,56V200a16,16,0,0,0,16,16H216a16,16,0,0,0,16-16V56A16,16,0,0,0,216,40Zm0,16V96H40V56ZM40,112H96v88H40Zm176,88H112V112H216v88Z"/></svg>
